client/svg/open.svg

<svg xmlns="http://www.w3.org/2000/svg" width="640" height="640" viewBox="0 0 640 640"><path d="M576 32h-512c-35.2 0-64 28.8-64 64v384c0 35.2 28.8 63.36 64 63.36h127.36v-62.72h-128v-295.040h513.28v295.040h-128v62.752h127.36c35.232 0 64-28.192 64-63.36v-384.032c0-35.2-28.768-64-64-64zM83.232 138.56c-13.28 0-24-10.464-24-23.36s10.72-23.36 24-23.36c13.248 0 24 10.464 24 23.36s-10.752 23.36-24 23.36zM147.232 138.56c-13.28 0-24-10.464-24-23.36s10.72-23.36 24-23.36c13.248 0 24 10.464 24 23.36s-10.752 23.36-24 23.36zM576.672 135.040h-385.312v-39.68h385.28v39.68zM318.336 261.568l-155.264 154.304h96v192.128h118.528v-192.128h96l-155.264-154.304z"></path></svg>

<svg xmlns="http://www.w3.org/2000/svg" width="640" height="640" viewBox="0 0 640 640"><path d="M576 32H64C28.8 32 0 60.8 0 96v384c0 35.2 28.8 63.36 64 63.36h127.36v-62.72h-128V185.6h513.28v295.04h-128v62.752H576c35.232 0 64-28.192 64-63.36V96c0-35.2-28.768-64-64-64zM83.232 138.56c-13.28 0-24-10.464-24-23.36s10.72-23.36 24-23.36c13.248 0 24 10.464 24 23.36s-10.752 23.36-24 23.36zm64 0c-13.28 0-24-10.464-24-23.36s10.72-23.36 24-23.36c13.248 0 24 10.464 24 23.36s-10.752 23.36-24 23.36zm429.44-3.52H191.36V95.36h385.28v39.68zM318.336 261.568L163.072 415.872h96V608H377.6V415.872h96L318.336 261.568z"/></svg>
